X: 423
T:Blooming Meadows, The
T:Lark on the Strand, The
R:jig
D:Colm Murphy: An Bodhr\'an
Z:id:hn-jig-111
M:6/8
K:G
BA|:GEF ~G2A|BAG ABd|edd gdd|edB dBA|
GEF G2A|BAG AB/c/d|edd gdB|1 AGF GBA:|2 AGF GBd||
|:~g3 efg|afd edB|Add fdd|ed^c def|
~g3 ~a3|bag fgf|edc BcA|1 BGF GBd:|2 BGF G||
"Variations:"
BA|:GEF G2A|BAG AB/c/d|edd gdd|~e3 dBA|
GEF ~G2A|BAG ABd|edg edB|1 AGF GBA:|2 AGF GBd||
|:~g3 efg|afd edB|Add fdd|ed^c def|
~g3 abc'|bag fgf|edc BcA|1 BGF GB/c/d:|2 BGF G||
<end>
<start>
